X:1
T:Title
%%score [ 1 2 3 4 ]
L:1/8
Q:1/4=83
M:4/4
K:F
V:1 treble nm="s" snm="s"
V:2 treble nm="a" snm="a"
V:3 treble-8 nm="t" snm="t"
V:4 bass nm="b" snm="b"
V:1
 c2 | d2 c2 A2 GA | FG AB c2 z F | B2 G2 AG F2- | F2 E2 F2 c2 | d2 c2 A2 GA | FG A=B c2 z c | %7
w: 1.\_En|stjär- na gick på *|him- * len * fram, Hal-|le- * * * *|* lu- ja! För|Ös- terns vi- se *|un- * der- * sam. Hal-|
w: 2.\_Lof|ske Gud Fa- der *|och * hans * Son, *||* * * Samt|Hel- ge And' på *|högs- * ta * tron! *|
 f2 d2 e2 A2 | A2 ^G2 A2 A2 | B2 G2 A2 F2 | G2 E2 D2 E2 | (FG AB c2 f2) | (e2 d2) c2 d2 | %13
w: le- lu- ja! Hal-|le- lu- ja! Då|märk- te de, att|ko- nung- en, Hal-|le- * * * * *|* lu- ja! Var|
w: |* * * Pris|va- re Guds barm-|här- tig- het, *||* * * Nu|
 c2 A2 F2 B2 | A2 F2 D2 E2 | (FG AB c4- | cd) e2 f2 B2 | (AG F4) E2 | F8 |] %19
w: kom- men ned af|him- me- len. Ha-|le- * * * *|* * lu- ja! Hal-|le- * * lu-|ja!|
w: och u- ti all|e- vig- het! *|||||
V:2
 F2 | F2 E2 F2 E2 | F2 D2 C2 z A, | (D2 C2- C2 A,=B,) | (C4 C2) F2 | F2 E2 D2 D2 | F2 F2 E2 z E | %7
w: 1.\_En|stjär- na gick på|him- len fram, Hal-|le- * * * *|lu- ja! För|Ös- terns vi- se|un- der- sam. Hal-|
w: 2.\_Lof|ske Gud Fa- der|och hans Son, *||* * Samt|Hel- ge And' på|högs- ta tron! *|
 A2 A2 G2 E2 | E2 ED ^C2 D2 | D2 C2 ^C2 D2 | ED ^C2 A,2 =C2 | (D2 F2- F2 A2) | (G2 F2) E2 E2 | %13
w: le- lu- ja! Hal-|le- lu- * ja! Då|märk- te de, att|ko- * nung- en, Hal-|le- * * *|* lu- ja! Var|
w: |* * * * Pris|va- re Guds barm-|här- * tig- het, *||* * * Nu|
 F2 E2 E2 D2 | ^C2 C2 D2 D2 | (C2 F2 G4 | F2) G2 FE D2 | (C2 A,=B,) C4 | C2 B,2 A,4 |] %19
w: kom- men ned af|him- me- len. Ha-|le- * *|* lu- ja! * Hal-|le- * * lu-|ja! * *|
w: och u- ti all|e- vig- het! *|||||
V:3
 A2 | B2 G2 F2 B2 | A2 F2 F2 z F | (F2 E2- E2 F2 | G2) AG F2 A2 | BA G2 ^F2 d2 | c2 d2 c2 z c | %7
w: 1.\_En|stjär- na gick på|him- len fram, Hal-|le- * * *|* lu- * ja! För|Ös- * terns vi- se|un- der- sam. Hal-|
w: 2.\_Lof|ske Gud Fa- der|och hans Son, *||* * * * Samt|Hel- * ge And' på|högs- ta tron! *|
 c2 =B2 B2 c2 | =B2 E2 E2 ^F2 | G2 E2 F_E D2 | B2 A2 ^F2 G2 | (B2 d2 c4-) | c2 A=B c2 _B2 | %13
w: le- lu- ja! Hal-|le- lu- ja! Då|märk- te de, * att|ko- nung- en, Hal-|le- * *|* lu- * ja! Var|
w: |* * * Pris|va- re Guds * barm-|här- tig- het, *||* * * * Nu|
 c2 B2 AG F2 | EF GA F2 B2 | (c2 B2 B2 AG | A2) B2 AG F2 | (E2 F2 G2) AG | FE D2 C4 |] %19
w: kom- men ned * af|him- * me- * len. Ha-|le- * * * *|* lu- ja! * Hal-|le- * * lu- *|ja! * * *|
w: och u- ti * all|e- * vig- * het! *|||||
V:4
 F,2 | B,,2 C,2 D,2 _D,2 | C,2 B,,2 A,,2 z D, | (G,,2 C,2 A,,2 D,2) | C,4 F,,2 F,2 | %5
w: 1.\_En|stjär- na gick på|him- len fram, Hal-|le- * * *|lu- ja! För|
w: 2.\_Lof|ske Gud Fa- der|och hans Son, *||* * Samt|
 B,,2 C,2 D,2 B,2 | A,2 G,2 C,2 z A, | D,2 F,2 E,2 C,D, | E,2 E,2 A,,2 D,2 | G,,2 C,2 F,,2 B,,2 | %10
w: Ös- terns vi- se|un- der- sam. Hal-|le- lu- ja! Hal- *|le- lu- ja! Då|märk- te de, att|
w: Hel- ge And' på|högs- ta tron! *||* * * Pris|va- re Guds barm-|
 G,,2 A,,2 D,2 C,2 | (B,,2 G,,2 A,,2 D,2) | (E,F,) G,2 C,2 G,,2 | A,,B,, C,2 D,2 G,,2 | %14
w: ko- nung- en, Hal-|le- * * *|* * lu- ja! Var|kom- * men ned af|
w: här- tig- het, *||* * * * Nu|och * u- ti all|
 A,,2 A,,2 B,,2 G,2 | (A,2 D,2 E,4 | D,2) C,2 D,2 G,,2 | (A,,2 D,2) C,4 | F,,8 |] %19
w: him- me- len. Ha-|le- * *|* lu- ja! Hal-|le- * lu-|ja!|
w: e- vig- het! *|||||

